packages/ffe-icons/icons/filled/md/nest_detect.svg

<svg xmlns="http://www.w3.org/2000/svg" height="24" viewBox="0 -960 960 960" width="24"><path d="M380-90q-54.154 0-92.076-37.924-37.923-37.922-37.923-92.076v-577.692q0-29.827 21.24-51.067t51.067-21.24h115.384q29.827 0 51.067 21.24t21.24 51.067V-220q0 54.154-37.923 92.076Q434.154-90.001 380-90.001ZM380-150q28.846 0 49.424-20.577 20.577-20.578 20.577-49.424t-20.577-49.424Q408.846-290.001 380-290.001t-49.424 20.577Q309.999-248.846 309.999-220t20.577 49.424q20.578 20.577 49.424 20.577Zm302.308-100.002q-29.827 0-51.067-21.24t-21.24-51.067v-315.384q0-29.827 21.24-51.067t51.067-21.24h35.384q29.827 0 51.067 21.24t21.24 51.067v315.384q0 29.827-21.24 51.067t-51.067 21.24h-35.384Z"/></svg>

<svg xmlns="http://www.w3.org/2000/svg" height="24" viewBox="0 -960 960 960" width="24"><path d="M380-90q-54.15 0-92.08-37.92Q250-165.85 250-220v-577.69q0-29.83 21.24-51.07Q292.48-870 322.31-870h115.38q29.83 0 51.07 21.24Q510-827.52 510-797.69V-220q0 54.15-37.92 92.08Q434.15-90 380-90Zm0-60q28.85 0 49.42-20.58Q450-191.15 450-220t-20.58-49.42Q408.85-290 380-290t-49.42 20.58Q310-248.85 310-220t20.58 49.42Q351.15-150 380-150Zm302.31-100q-29.83 0-51.07-21.24Q610-292.48 610-322.31v-315.38q0-29.83 21.24-51.07Q652.48-710 682.31-710h35.38q29.83 0 51.07 21.24Q790-667.52 790-637.69v315.38q0 29.83-21.24 51.07Q747.52-250 717.69-250h-35.38Z"/></svg>
